;FLAVOR:UltiGCode
;TIME:6196
;MATERIAL:5307
;MATERIAL2:0
;NOZZLE_DIAMETER:0.4
;MINX:70.65
;MINY:70.624
;MINZ:0.27
;MAXX:152.4
;MAXY:152.374
;MAXZ:5.47
;Generated with Cura_SteamEngine 4.11.0
M82 ;absolute extrusion mode
G0 F3000 Y50 ;avoid prime blob
G92 E0
G92 E0
G10
;LAYER_COUNT:53
;LAYER:0
M107
G0 F4320 X73.075 Y72.815 Z0.27
;TYPE:SKIRT
G11
G1 F1800 X73.674 Y72.295 E0.07496
G1 X74.323 Y71.839 E0.14992
G1 X75.015 Y71.45 E0.22493
G1 X75.742 Y71.132 E0.29992
G1 X76.498 Y70.889 E0.37496
G1 X77.274 Y70.724 E0.44993
G1 X78.062 Y70.638 E0.52484
G1 X78.525 Y70.624 E0.56861
G1 X144.525 Y70.624 E6.80561
G1 X145.317 Y70.664 E6.88055
G1 X146.102 Y70.783 E6.95558
G1 X146.87 Y70.981 E7.03053
G1 X147.615 Y71.256 E7.10558
G1 X148.328 Y71.603 E7.18051
G1 X149.003 Y72.021 E7.25554
G1 X149.632 Y72.504 E7.33048
G1 X150.209 Y73.049 E7.40549
G1 X150.729 Y73.648 E7.48045
G1 X151.185 Y74.297 E7.5554
G1 X151.574 Y74.989 E7.63042
G1 X151.892 Y75.716 E7.70541
G1 X152.135 Y76.472 E7.78045
G1 X152.3 Y77.248 E7.85542
G1 X152.386 Y78.036 E7.93033
G1 X152.4 Y78.499 E7.9741
G1 X152.4 Y144.499 E14.2111
G1 X152.36 Y145.291 E14.28604
G1 X152.241 Y146.076 E14.36107
G1 X152.043 Y146.844 E14.43602
G1 X151.768 Y147.589 E14.51107
G1 X151.421 Y148.302 E14.586
G1 X151.003 Y148.977 E14.66103
G1 X150.52 Y149.606 E14.73597
G1 X149.975 Y150.183 E14.81098
G1 X149.376 Y150.703 E14.88594
G1 X148.727 Y151.159 E14.96089
G1 X148.035 Y151.548 E15.03591
G1 X147.308 Y151.866 E15.1109
G1 X146.552 Y152.109 E15.18594
G1 X145.776 Y152.274 E15.26091
G1 X144.988 Y152.36 E15.33582
G1 X144.525 Y152.374 E15.37959
G1 X78.525 Y152.374 E21.61659
G1 X77.733 Y152.334 E21.69153
G1 X76.948 Y152.215 E21.76656
G1 X76.18 Y152.017 E21.84151
G1 X75.435 Y151.742 E21.91656
G1 X74.722 Y151.395 E21.99149
G1 X74.047 Y150.977 E22.06652
G1 X73.418 Y150.494 E22.14146
G1 X72.841 Y149.949 E22.21647
G1 X72.321 Y149.35 E22.29143
G1 X71.865 Y148.701 E22.36638
G1 X71.476 Y148.009 E22.4414
G1 X71.158 Y147.282 E22.51639
G1 X70.915 Y146.526 E22.59143
G1 X70.75 Y145.75 E22.6664
G1 X70.664 Y144.962 E22.74131
G1 X70.65 Y144.499 E22.78508
G1 X70.65 Y78.499 E29.02208
G1 X70.69 Y77.707 E29.09702
G1 X70.809 Y76.922 E29.17205
G1 X71.007 Y76.154 E29.247
G1 X71.282 Y75.409 E29.32204
G1 X71.629 Y74.696 E29.39698
G1 X72.047 Y74.021 E29.47201
G1 X72.53 Y73.392 E29.54695
G1 X73.075 Y72.815 E29.62195
G0 F4320 X73.419 Y72.972
G1 F1800 X74.015 Y72.475 E29.69529
G1 X74.659 Y72.043 E29.76857
G1 X75.344 Y71.68 E29.84183
G1 X76.063 Y71.388 E29.91517
G1 X76.808 Y71.173 E29.98844
G1 X77.571 Y71.035 E30.06172
G1 X78.525 Y70.974 E30.15205
G1 X144.525 Y70.974 E36.38905
G1 X145.3 Y71.014 E36.46239
G1 X146.066 Y71.133 E36.53564
G1 X146.816 Y71.331 E36.60895
G1 X147.542 Y71.605 E36.68228
G1 X148.235 Y71.952 E36.75552
G1 X148.889 Y72.369 E36.82881
G1 X149.497 Y72.851 E36.90213
G1 X150.052 Y73.393 E36.97544
G1 X150.549 Y73.989 E37.04878
G1 X150.981 Y74.633 E37.12206
G1 X151.344 Y75.318 E37.19532
G1 X151.636 Y76.037 E37.26865
G1 X151.851 Y76.782 E37.34193
G1 X151.989 Y77.545 E37.4152
G1 X152.05 Y78.499 E37.50554
G1 X152.05 Y144.499 E43.74254
G1 X152.01 Y145.274 E43.81588
G1 X151.891 Y146.04 E43.88913
G1 X151.693 Y146.79 E43.96243
G1 X151.419 Y147.516 E44.03576
G1 X151.072 Y148.209 E44.109
G1 X150.655 Y148.863 E44.1823
G1 X150.173 Y149.471 E44.25562
G1 X149.631 Y150.026 E44.32893
G1 X149.035 Y150.523 E44.40227
G1 X148.391 Y150.955 E44.47555
G1 X147.706 Y151.318 E44.54881
G1 X146.987 Y151.61 E44.62214
G1 X146.242 Y151.825 E44.69542
G1 X145.479 Y151.963 E44.76869
G1 X144.525 Y152.024 E44.85903
G1 X78.525 Y152.024 E51.09603
G1 X77.75 Y151.984 E51.16936
G1 X76.984 Y151.865 E51.24262
G1 X76.234 Y151.667 E51.31592
G1 X75.508 Y151.393 E51.38925
G1 X74.815 Y151.046 E51.46249
G1 X74.161 Y150.629 E51.53579
G1 X73.553 Y150.147 E51.60911
G1 X72.998 Y149.605 E51.68242
G1 X72.501 Y149.009 E51.75575
G1 X72.069 Y148.365 E51.82904
G1 X71.706 Y147.68 E51.9023
G1 X71.414 Y146.961 E51.97563
G1 X71.199 Y146.216 E52.04891
G1 X71.061 Y145.453 E52.12218
G1 X71 Y144.499 E52.21252
G1 X71 Y78.499 E58.44952
G1 X71.04 Y77.724 E58.52285
G1 X71.159 Y76.958 E58.59611
G1 X71.357 Y76.208 E58.66941
G1 X71.631 Y75.482 E58.74274
G1 X71.978 Y74.789 E58.81598
G1 X72.395 Y74.135 E58.88928
G1 X72.877 Y73.527 E58.9626
G1 X73.419 Y72.972 E59.03591
G0 F4320 X73.762 Y73.133
G1 F1800 X74.354 Y72.661 E59.10746
G1 X74.993 Y72.254 E59.17905
G1 X75.671 Y71.916 E59.25064
G1 X76.38 Y71.652 E59.32214
G1 X77.114 Y71.464 E59.39374
G1 X77.863 Y71.355 E59.46526
G1 X78.525 Y71.324 E59.52789
G1 X144.525 Y71.324 E65.76489
G1 X145.281 Y71.364 E65.83643
G1 X146.029 Y71.483 E65.90801
G1 X146.76 Y71.681 E65.97958
G1 X147.467 Y71.955 E66.05123
G1 X148.14 Y72.301 E66.12274
G1 X148.773 Y72.717 E66.19432
G1 X149.359 Y73.197 E66.2659
G1 X149.891 Y73.736 E66.33747
G1 X150.363 Y74.328 E66.40902
G1 X150.77 Y74.967 E66.48061
G1 X151.108 Y75.645 E66.55221
G1 X151.372 Y76.354 E66.6237
G1 X151.56 Y77.088 E66.6953
G1 X151.669 Y77.837 E66.76683
G1 X151.7 Y78.499 E66.82946
G1 X151.7 Y144.499 E73.06646
G1 X151.66 Y145.255 E73.138
G1 X151.541 Y146.003 E73.20957
G1 X151.343 Y146.734 E73.28114
G1 X151.069 Y147.441 E73.3528
G1 X150.723 Y148.114 E73.42431
G1 X150.307 Y148.747 E73.49589
G1 X149.827 Y149.333 E73.56747
G1 X149.288 Y149.865 E73.63904
G1 X148.696 Y150.337 E73.71059
G1 X148.057 Y150.744 E73.78218
G1 X147.379 Y151.082 E73.85377
G1 X146.67 Y151.346 E73.92527
G1 X145.936 Y151.534 E73.99687
G1 X145.187 Y151.643 E74.06839
G1 X144.525 Y151.674 E74.13102
G1 X78.525 Y151.674 E80.36802
G1 X77.769 Y151.634 E80.43956
G1 X77.021 Y151.515 E80.51114
G1 X76.29 Y151.317 E80.58271
G1 X75.583 Y151.043 E80.65436
G1 X74.91 Y150.697 E80.72587
G1 X74.277 Y150.281 E80.79745
G1 X73.691 Y149.801 E80.86904
G1 X73.159 Y149.262 E80.9406
G1 X72.687 Y148.67 E81.01215
G1 X72.28 Y148.031 E81.08375
G1 X71.942 Y147.353 E81.15534
G1 X71.678 Y146.644 E81.22683
G1 X71.49 Y145.91 E81.29843
G1 X71.381 Y145.161 E81.36996
G1 X71.35 Y144.499 E81.43259
G1 X71.35 Y78.499 E87.66959
G1 X71.39 Y77.743 E87.74113
G1 X71.509 Y76.995 E87.8127
G1 X71.707 Y76.264 E87.88427
G1 X71.981 Y75.557 E87.95593
G1 X72.327 Y74.884 E88.02744
G1 X72.743 Y74.251 E88.09902
G1 X73.223 Y73.665 E88.1706
G1 X73.762 Y73.133 E88.24217
G0 F4320 X73.568 Y73.807
G1 F1800 X74.104 Y73.299 E88.31195
G1 X74.692 Y72.852 E88.38175
G1 X75.325 Y72.471 E88.45157
G1 X75.995 Y72.16 E88.52138
G1 X76.695 Y71.924 E88.59118
G1 X77.416 Y71.765 E88.66096
G1 X78.151 Y71.684 E88.73083
G1 X78.525 Y71.674 E88.76619
G1 X144.525 Y71.674 E95.00319
G1 X145.263 Y71.714 E95.07303
G1 X145.991 Y71.833 E95.14274
G1 X146.703 Y72.031 E95.21258
G1 X147.389 Y72.304 E95.28235
G1 X148.042 Y72.65 E95.35219
G1 X148.654 Y73.064 E95.42201
G1 X149.217 Y73.542 E95.4918
G1 X149.725 Y74.078 E95.56159
G1 X150.172 Y74.666 E95.63139
G1 X150.553 Y75.299 E95.70121
G1 X150.864 Y75.969 E95.77101
G1 X151.1 Y76.669 E95.84082
G1 X151.259 Y77.39 E95.91059
G1 X151.34 Y78.125 E95.98047
G1 X151.35 Y78.499 E96.01582
G1 X151.35 Y144.499 E102.25282
G1 X151.31 Y145.237 E102.32267
G1 X151.191 Y145.965 E102.39238
G1 X150.993 Y146.677 E102.46221
G1 X150.72 Y147.363 E102.53199
G1 X150.374 Y148.016 E102.60182
G1 X149.96 Y148.628 E102.67165
G1 X149.482 Y149.191 E102.74144
G1 X148.946 Y149.699 E102.81122
G1 X148.358 Y150.146 E102.88102
G1 X147.725 Y150.527 E102.95084
G1 X147.055 Y150.838 E103.02065
G1 X146.355 Y151.074 E103.09045
G1 X145.634 Y151.233 E103.16023
G1 X144.899 Y151.314 E103.2301
G1 X144.525 Y151.324 E103.26546
G1 X78.525 Y151.324 E109.50246
G1 X77.787 Y151.284 E109.5723
G1 X77.059 Y151.165 E109.64201
G1 X76.347 Y150.967 E109.71185
G1 X75.661 Y150.694 E109.78162
G1 X75.008 Y150.348 E109.85146
G1 X74.396 Y149.934 E109.92128
G1 X73.833 Y149.456 E109.99107
G1 X73.325 Y148.92 E110.06086
G1 X72.878 Y148.332 E110.13066
G1 X72.497 Y147.699 E110.20048
G1 X72.186 Y147.029 E110.27028
G1 X71.95 Y146.329 E110.34009
G1 X71.791 Y145.608 E110.40986
G1 X71.71 Y144.873 E110.47974
G1 X71.7 Y144.499 E110.51509
G1 X71.7 Y78.499 E116.75209
G1 X71.74 Y77.761 E116.82194
G1 X71.859 Y77.033 E116.89165
G1 X72.057 Y76.321 E116.96148
G1 X72.33 Y75.635 E117.03126
G1 X72.676 Y74.982 E117.10109
G1 X73.09 Y74.37 E117.17092
G1 X73.568 Y73.807 E117.24071
G0 F4320 X73.914 Y73.954
G1 F1800 X74.446 Y73.47 E117.30867
G1 X75.029 Y73.049 E117.37663
G1 X75.656 Y72.695 E117.44467
G1 X76.317 Y72.412 E117.51262
G1 X77.006 Y72.205 E117.58061
G1 X77.714 Y72.075 E117.64863
G1 X78.525 Y72.024 E117.72542
G1 X144.525 Y72.024 E123.96242
G1 X145.243 Y72.064 E124.03038
G1 X145.953 Y72.183 E124.09841
G1 X146.645 Y72.381 E124.16643
G1 X147.31 Y72.654 E124.23436
G1 X147.942 Y72.999 E124.3024
G1 X148.531 Y73.412 E124.37038
G1 X149.07 Y73.888 E124.43834
G1 X149.554 Y74.42 E124.50631
G1 X149.975 Y75.003 E124.57426
G1 X150.329 Y75.63 E124.64231
G1 X150.612 Y76.291 E124.71025
G1 X150.819 Y76.98 E124.77824
G1 X150.949 Y77.688 E124.84626
G1 X151 Y78.499 E124.92305
G1 X151 Y144.499 E131.16005
G1 X150.96 Y145.217 E131.22801
G1 X150.841 Y145.927 E131.29604
G1 X150.643 Y146.619 E131.36406
G1 X150.37 Y147.284 E131.43199
G1 X150.025 Y147.916 E131.50004
G1 X149.612 Y148.505 E131.56802
G1 X149.136 Y149.044 E131.63597
G1 X148.604 Y149.528 E131.70394
G1 X148.021 Y149.949 E131.77189
G1 X147.394 Y150.303 E131.83994
G1 X146.733 Y150.586 E131.90788
G1 X146.044 Y150.793 E131.97587
G1 X145.336 Y150.923 E132.04389
G1 X144.525 Y150.974 E132.12069
G1 X78.525 Y150.974 E138.35769
G1 X77.807 Y150.934 E138.42564
G1 X77.097 Y150.815 E138.49367
G1 X76.405 Y150.617 E138.56169
G1 X75.74 Y150.344 E138.62962
G1 X75.108 Y149.999 E138.69767
G1 X74.519 Y149.586 E138.76565
G1 X73.98 Y149.11 E138.8336
G1 X73.496 Y148.578 E138.90157
G1 X73.075 Y147.995 E138.96952
G1 X72.721 Y147.368 E139.03757
G1 X72.438 Y146.707 E139.10552
G1 X72.231 Y146.018 E139.1735
G1 X72.101 Y145.31 E139.24153
G1 X72.05 Y144.499 E139.31832
G1 X72.05 Y78.499 E145.55532
G1 X72.09 Y77.781 E145.62327
G1 X72.209 Y77.071 E145.6913
G1 X72.407 Y76.379 E145.75932
G1 X72.68 Y75.714 E145.82725
G1 X73.025 Y75.082 E145.8953
G1 X73.438 Y74.493 E145.96328
G1 X73.914 Y73.954 E146.03123
G0 F4320 X74.258 Y74.105
G1 F1800 X74.787 Y73.647 E146.09735
G1 X75.365 Y73.252 E146.16351
G1 X75.984 Y72.926 E146.22962
G1 X76.636 Y72.672 E146.29575
G1 X77.313 Y72.495 E146.36188
G1 X78.006 Y72.396 E146.42803
G1 X78.525 Y72.374 E146.47712
G1 X144.525 Y72.374 E152.71412
G1 X145.224 Y72.414 E152.78028
G1 X145.913 Y72.533 E152.84636
G1 X146.584 Y72.731 E152.91247
G1 X147.229 Y73.003 E152.97862
G1 X147.838 Y73.347 E153.04472
G1 X148.404 Y73.759 E153.11087
G1 X148.919 Y74.232 E153.17695
G1 X149.377 Y74.761 E153.24308
G1 X149.772 Y75.339 E153.30923
G1 X150.098 Y75.958 E153.37535
G1 X150.352 Y76.61 E153.44147
G1 X150.529 Y77.287 E153.5076
G1 X150.628 Y77.98 E153.57375
G1 X150.65 Y78.499 E153.62284
G1 X150.65 Y144.499 E159.85984
G1 X150.61 Y145.198 E159.926
G1 X150.491 Y145.887 E159.99208
G1 X150.293 Y146.558 E160.05819
G1 X150.021 Y147.203 E160.12434
G1 X149.677 Y147.812 E160.19044
G1 X149.265 Y148.378 E160.25659
G1 X148.792 Y148.893 E160.32267
G1 X148.263 Y149.351 E160.3888
G1 X147.685 Y149.746 E160.45495
G1 X147.066 Y150.072 E160.52107
G1 X146.414 Y150.326 E160.58719
G1 X145.737 Y150.503 E160.65332
G1 X145.044 Y150.602 E160.71947
G1 X144.525 Y150.624 E160.76856
G1 X78.525 Y150.624 E167.00556
G1 X77.826 Y150.584 E167.07172
G1 X77.137 Y150.465 E167.1378
G1 X76.466 Y150.267 E167.20391
G1 X75.821 Y149.995 E167.27006
G1 X75.212 Y149.651 E167.33616
G1 X74.646 Y149.239 E167.40232
G1 X74.131 Y148.766 E167.4684
G1 X73.673 Y148.237 E167.53452
G1 X73.278 Y147.659 E167.60068
G1 X72.952 Y147.04 E167.66679
G1 X72.698 Y146.388 E167.73291
G1 X72.521 Y145.711 E167.79904
G1 X72.422 Y145.018 E167.86519
G1 X72.4 Y144.499 E167.91428
G1 X72.4 Y78.499 E174.15128
G1 X72.44 Y77.8 E174.21745
G1 X72.559 Y77.111 E174.28352
G1 X72.757 Y76.44 E174.34963
G1 X73.029 Y75.795 E174.41578
G1 X73.373 Y75.186 E174.48188
G1 X73.785 Y74.62 E174.54804
G1 X74.258 Y74.105 E174.61412
G0 F4320 X74.602 Y74.261
G1 F1800 X75.127 Y73.83 E174.67831
G1 X75.699 Y73.463 E174.74253
G1 X76.31 Y73.166 E174.80673
G1 X76.952 Y72.942 E174.87098
G1 X77.615 Y72.796 E174.93514
G1 X78.525 Y72.724 E175.0214
G1 X144.525 Y72.724 E181.2584
G1 X145.203 Y72.764 E181.32259
G1 X145.872 Y72.883 E181.3868
G1 X146.522 Y73.08 E181.45098
G1 X147.145 Y73.352 E181.51522
G1 X147.731 Y73.696 E181.57944
G1 X148.273 Y74.106 E181.64366
G1 X148.763 Y74.576 E181.70782
G1 X149.194 Y75.101 E181.77201
G1 X149.561 Y75.673 E181.83623
G1 X149.858 Y76.284 E181.90043
G1 X150.082 Y76.926 E181.96469
G1 X150.228 Y77.589 E182.02884
G1 X150.3 Y78.499 E182.11511
G1 X150.3 Y144.499 E188.35211
G1 X150.26 Y145.177 E188.41629
G1 X150.141 Y145.846 E188.4805
G1 X149.944 Y146.496 E188.54469
G1 X149.672 Y147.119 E188.60893
G1 X149.328 Y147.705 E188.67314
G1 X148.918 Y148.247 E188.73736
G1 X148.448 Y148.737 E188.80153
G1 X147.923 Y149.168 E188.86572
G1 X147.351 Y149.535 E188.92994
G1 X146.74 Y149.832 E188.99414
G1 X146.098 Y150.056 E189.05839
G1 X145.435 Y150.202 E189.12255
G1 X144.525 Y150.274 E189.20881
G1 X78.525 Y150.274 E195.44581
G1 X77.847 Y150.234 E195.51
G1 X77.178 Y150.115 E195.57421
G1 X76.528 Y149.918 E195.63839
G1 X75.905 Y149.646 E195.70263
G1 X75.319 Y149.302 E195.76685
G1 X74.777 Y148.892 E195.83107
G1 X74.287 Y148.422 E195.89523
G1 X73.856 Y147.897 E195.95942
G1 X73.489 Y147.325 E196.02364
G1 X73.192 Y146.714 E196.08784
G1 X72.968 Y146.072 E196.1521
G1 X72.822 Y145.409 E196.21625
G1 X72.75 Y144.499 E196.30252
G1 X72.75 Y78.499 E202.53952
G1 X72.79 Y77.821 E202.6037
G1 X72.909 Y77.152 E202.66791
G1 X73.106 Y76.502 E202.7321
G1 X73.378 Y75.879 E202.79634
G1 X73.722 Y75.293 E202.86055
G1 X74.132 Y74.751 E202.92477
G1 X74.602 Y74.261 E202.98894
G0 F4320 X74.945 Y74.423
G1 F1800 X75.466 Y74.019 E203.05124
G1 X76.031 Y73.681 E203.11346
G1 X76.633 Y73.415 E203.17565
G1 X77.263 Y73.223 E203.23789
G1 X77.911 Y73.109 E203.30007
G1 X78.525 Y73.074 E203.35818
G1 X144.525 Y73.074 E209.59518
G1 X145.182 Y73.114 E209.65738
G1 X145.83 Y73.233 E209.71964
G1 X146.458 Y73.43 E209.78184
G1 X147.058 Y73.702 E209.8441
G1 X147.621 Y74.044 E209.90635
G1 X148.138 Y74.452 E209.96858
G1 X148.601 Y74.919 E210.03073
G1 X149.005 Y75.44 E210.09303
G1 X149.343 Y76.005 E210.15525
G1 X149.609 Y76.607 E210.21744
G1 X149.801 Y77.237 E210.27968
G1 X149.915 Y77.885 E210.34186
G1 X149.95 Y78.499 E210.39998
G1 X149.95 Y144.499 E216.63698
G1 X149.91 Y145.156 E216.69918
G1 X149.791 Y145.804 E216.76144
G1 X149.594 Y146.432 E216.82364
G1 X149.322 Y147.032 E216.88589
G1 X148.98 Y147.595 E216.94814
G1 X148.572 Y148.112 E217.01038
G1 X148.105 Y148.575 E217.07252
G1 X147.584 Y148.979 E217.13482
G1 X147.019 Y149.317 E217.19704
G1 X146.417 Y149.583 E217.25924
G1 X145.787 Y149.775 E217.32148
G1 X145.139 Y149.889 E217.38365
G1 X144.525 Y149.924 E217.44177
G1 X78.525 Y149.924 E223.67877
G1 X77.868 Y149.884 E223.74097
G1 X77.22 Y149.765 E223.80323
G1 X76.592 Y149.568 E223.86543
G1 X75.992 Y149.296 E223.92768
G1 X75.429 Y148.954 E223.98993
G1 X74.912 Y148.546 E224.05217
G1 X74.449 Y148.079 E224.11431
G1 X74.045 Y147.558 E224.17662
G1 X73.707 Y146.993 E224.23883
G1 X73.441 Y146.391 E224.30103
G1 X73.249 Y145.761 E224.36327
G1 X73.135 Y145.113 E224.42544
G1 X73.1 Y144.499 E224.48356
G1 X73.1 Y78.499 E230.72056
G1 X73.14 Y77.842 E230.78276
G1 X73.259 Y77.194 E230.84502
G1 X73.456 Y76.566 E230.90722
G1 X73.728 Y75.966 E230.96947
G1 X74.07 Y75.403 E231.03173
G1 X74.478 Y74.886 E231.09396
G1 X74.945 Y74.423 E231.15611
G0 F4320 X74.824 Y75.027
G1 F1800 X75.288 Y74.591 E231.21628
G1 X75.803 Y74.216 E231.27648
